X: 306
%
T: Lady Jemima Cornwalis
C:Marshall
O:Scotland
B:Keith Norman MacDonald : "The Skye collection of the best reels & strathspeys extant" : 1887
Z:Ralph Palmer
R:Reel
M:C|
L:1/8
K:A
A2 a2 {/b}(a/2g/2f/2g/2) a2 | aece T(fe)(dc) | B2 b2 (b/2^a/2g/2a/2) b2 | bB^df bfg=a | A2 a2 {/b}(a/2g/2f/2g/2) a2 |
aece T(fe)(dc) | defg aedc | Bbfb (ag)(fa) || Aece Aece |Aeca T(fe)(dc) | Bf^df Bfdf |
bB^df bfga | Aece Aece | Aeca T(fe)(dc) | defg aedc | Bbfb (ag)(fa) |]


